!!!!SEGMENT: pl-wumfc--n43031_szymanowski-karol--etude-b-moll-op-4-no-3.krn
!!!cenid: 19xx:85
!!!COM: Szymanowski, Karol
!!!COM-rismID: pe30106403
!!!CDT: 1882-1937
!!!CNT: Polish
!!!OTL: Etude b-moll Op. 4 No. 3
!!!PDT:
!!!AGN: Secular; Song
!!!YEC: Copyright 2022 Narodowy Instytut Fryderyka Chopina (https://polishscores.org)
!!!YEM: License CC-BY-4.0 (https://creativecommons.org/licenses/by/4.0)
!!!SMS-siglum: PL-Wumfc
!!!SMS-shelfmark: N43031
!!!SMS-variant:
!!!SMS-altvar:
!!!SMS-shelfwork: W
!!!NIFC-rismSourceID: 1001167201
!!!NIFC-rismChildID: 1001167201
!!!NIFC-islandoraID: pl-wumfc:6091
!!!URL-pdf-islandora: https://repozytorium.nifc.pl/islandora/object/pl-wumfc%3A6091/datastream/PDF/view
!!!URL-scan: https://polish.musicsources.pl/pl/lokalizacje/galeria/druki-muzyczne/12464/3 @EN{Scan on Polish Music Sources Website} @PL{Skany w portalu Dziedzictwo Muzyki Polskiej w otwartym dostępie}
!!!IIIF:
!!!ONB-nifc:
!!!OMD: Andante
!!!AIN: 1 piano
!!!key: b-
**kern	**fing	**kern	**dynam
*part1	*part1	*part1	*part1
*staff2	*staff2	*staff1	*
*ICklav	*	*ICklav	*
*Ipiano	*	*Ipiano	*
*I"[Piano]	*	*I"[Piano]	*
*clefF4	*	*clefG2	*
*k[b-e-a-d-g-]	*	*k[b-e-a-d-g-]	*
*b-:	*	*b-:	*
*M3/4	*	*M3/4	*
*clefG2	*	*	*
*^	*	*	*
!	!	!	!LO:TX:a:t=-In modo d'una canzone-\n(con dolore)	!
8d-/L 8f 8b-	2B-\	.	2r	ppp
8d-/J 8f 8b-	.	.	.	.
8d-/L 8f 8b-	.	.	.	.
8d-/J 8f 8b-	.	.	.	.
=1	=1	=1	=1	=1
!LO:TX:a:t=m.d.	!	!	!LO:TX:b:t=legatissimo	!
8f/L 8b-	4B-\	.	(8.d-/L 8.dd-	<
8f/J 8b-	.	.	.	.
.	.	.	16d-/Jk 16dd-	.
8d-/L 8e- 8b--	4G-\	.	8.g-\L 8.gg-	.
8d-/J 8e- 8b--	.	.	.	.
.	.	.	16g-\Jk 16gg-	.
8c/L 8a-	4A-\	.	16e-\LL 16ee-	.
.	.	.	16f\J 16ff	.
8c/J 8a-	.	.	8e-\J 8ee-	[
*clefF4	*	*	*	*
=2	=2	=2	=2	=2
8c/ 8a-	2.F\	.	8.f/L 8.ff	.
4c/ 4a-	.	.	.	.
.	.	.	16c/Jk 16cc	>
.	.	.	2c/) 2cc	.
!LO:TX:a:t=m.d. (rit.)	!	!	!	!
8A-/L 8f	.	.	.	.
8A-/ 8f	.	.	.	]
8B-/J 8gn	.	.	.	.
!!LO:LB:g=original
=3	=3	=3	=3	=3
!LO:TX:a:t=m.d.	!	!	!	!
8c/L 8f	4F\	.	(>8.A-/L 8.a-	<
8c/J 8f	.	.	.	.
.	.	.	16A-/Jk 16a-	.
8A-/L 8B- 8f-	4D-\	.	8.d-/L 8.dd-	.
8A-/J 8B- 8f-	.	.	.	.
.	.	.	16d-/Jk 16dd-	[
8G-X/L 8e-	4E-\	.	16B-/LL 16b-	.
.	.	.	16c/J 16cc	.
8G-X/J 8e-	.	.	8B-/J 8b-	.
=4	=4	=4	=4	=4
8E-:/L 8A-: 8e-:	8AA-:\	.	8.c/L 8.cc	>
8E-/J 8A- 8e-	8r	.	.	.
.	.	.	16A-/Jk 16a-	.
8E-:/L 8G-: 8c:	8GG-:\	.	2B-/) 2b-	]
!LO:TX:a:t=m.d.	!	!	!	!
!LO:TX:a:t=(rit.)	!	!	!	!
8E-/J 8G- 8c	8r	.	.	.
16c/LL	8E-\L 8G-	.	.	.
16d-/J	.	.	.	.
8c/J	8E-\J 8G-	.	.	.
=5	=5	=5	=5	=5
*M1/4	*M1/4	*	*M1/4	*
8C:/L 8F: 8An:	8FF:\	.	[8.c/L 8.cc	<
8C/J 8F 8A	8r	.	.	.
.	.	.	16c/Jk] 16cc	.
*v	*v	*	*	*
=6||	=6||	=6||	=6||
*M3/4	*	*M3/4	*
*^	*	*^	*
8F/L 8B-	8BB-\	.	(8.d-/L 8.dd-	8b-\L	[ <
8F/J 8B- 8f	8r	.	.	8a-\J	.
.	.	.	16d-/Jk 16dd-	.	.
16qqEE-/LL	.	.	.	.	.
16qqE-/JJ	.	.	.	.	.
8B-\L 8d- 8g-	4ryy	.	8.b-/L 8.bb-	8dd-\L	mf
8B-\J 8d- 8g-	.	.	.	8dd-\J	.
.	.	.	16b-/Jk 16bb-	.	.
8A-:/L 8c:	8AA-:\ 8E-:	.	16a-/LL 16aa-	8ee-\L	.
.	.	.	16b-/J 16bb-	.	.
8c/J 8e-	8r	.	8a-/J 8aa-	8ee-\J	.
!!LO:LB:g=original
=7	=7	=7	=7	=7	=7
*^	*	*	*	*	*
4ryy	8B-:/L 8d-:	8BB-:\	.	8.g-/L 8.gg-	8dd-\L	>
.	8B-/J 8d-	8r	.	.	8g-\J	.
.	.	.	.	16d-/Jk 16dd-	.	.
16A-\LL	8c/L	4C\	.	4e-/ 4ee-	8a-\L	.
16B-\J	.	.	.	.	.	.
8A-\J	8c/J	.	.	.	8e-\J 8a-	.
4ryy	8G-/L 8B-	4D-\	.	8.d-/L 8.dd-	8g-\L	.
.	8G-/J 8B-	.	.	.	8d-\J 8g-	]
.	.	.	.	16A-/Jk) 16a-	.	.
*v	*v	*	*	*	*	*
*v	*v	*	*	*	*
*	*	*v	*v	*
=8	=8	=8	=8
!LO:TX:b:t=marc.	!	!	!
8.AA-/L	.	(>8A-^^/L 8c 8g- 8a-	p <
.	.	8A-/J 8c [<8g- [>8a-	.
16DDn/Jk 16Dn	.	.	.
(16DD/LL 16D	.	8A-/L 8c 8g-] 8a-]	.
16EE-/J 16E-	.	.	.
8DD/J) 8D	.	8A-/J 8c [<8g- [>8a-	.
8.EE-/L 8.E-	.	8An/L 8c#X 8g-] 8a-]	[
.	.	8A/J 8c# [<8gn [>8an	<
16EEn/Jk 16En	.	.	.
=9	=9	=9	=9
8.BB-/L 8.B-	.	8B-/L 8dn 8g] 8a]	.
.	.	8B-/J 8d [<8a-X [>8b-	.
16EEn/Jk 16En	.	.	.
(16EE/LL 16E	.	8B-/L 8d 8a-] 8b-]	.
16FF/J 16F	.	.	.
8EE/J) 8E	.	8B-/J 8d [<8a- [>8b-	.
8.FF/L 8.F	.	8Bn/L 8d#X 8a-] 8b-]	.
.	.	8B/J 8d# [<8an [>8bn	.
16GG-/Jk 16G-	.	.	.
!!LO:LB:g=original
=10	=10	=10	=10
*	*	*^	*
8.GG-\L 8.G-	.	8c/L 8e- 8a] 8b]	4ryy	f
.	.	8c/J 8e- 8an 8cc	.	.
16G-\Jk 16g-	.	.	.	.
16G-\LL 16g-	.	8c/L 8en 8b-y 8cc	4ryy	.
16A-\J 16a-	.	.	.	.
[8G-\J [8g-	.	8c/J 8e 8b- 8cc	.	.
!	!	!LO:TX:b:t=rit.	!	!
8G-\L] 8g-]	.	8.c/L 8.cc	8e\L 8b-	.
8GG-\J 8G-	.	.	8e\J 8b-	.
.	.	16d-/Jk) 16dd-	.	.
=11	=11	=11	=11	=11
8qFF/	.	.	.	.
*^	*	*	*	*
*	*^	*	*	*	*
8F\L 8B-	4ryy	4ryy	.	(8.d-/L 8.dd-	8f\L 8b-	<
8F\J 8B-	.	.	.	.	8f\J 8b-	.
.	.	.	.	16d-/Jk 16dd-	.	.
16qqEE-/LL	.	.	.	.	.	.
16qqE-/JJ	.	.	.	.	.	.
16e-/LL	8E-\L 8B-	4ryy	.	8.g-/L 8.gg-	8.b-\L 8.dd-	.
16f/J	.	.	.	.	.	[
8e-/J	8E-\J 8B-	.	.	.	.	.
!	!	!	!	!LO:TX:b:t=rit.	!	!
.	.	.	.	16g-/Jk 16gg-	16b-\Jk 16dd-	.
16c:/LL	8G-:\L	8AA-:\	.	16e-/LL 16ee-	8a-\L	.
16d-/J	.	.	.	16f/J 16ff	.	.
8c/J	8G-\J	8rFF	.	8e-/J 8ee-	8a-\J	.
*v	*v	*v	*	*	*	*
=12	=12	=12	=12	=12
8FF\L 8F	.	8.f/L 8.ff	8b-\L 8cc	>
8C\J 8c	.	.	8f\J 8b-	.
.	.	16c/Jk 16cc	.	.
!	!	!LO:TX:t=P:problem=mixed beam	!	!
4F\	.	2c/) 2cc	8a-\L	.
.	.	.	(8A-</J 8f<	.
4r	.	.	8A-</L 8f<	.
.	.	.	8B-</J) 8gn<	.
*	*	*v	*v	*
!!LO:PB:g=original
=13	=13	=13	=13
*^	*	*	*
8c/L 8f	4F\	.	(>8.A-/L 8.a-	<
8c/J 8f	.	.	.	.
.	.	.	16A-/Jk 16a-	.
8A-/L 8B- 8f-X	4D-\	.	8.d-/L 8.dd-	.
8A-/J 8B- 8f-	.	.	.	[
!	!	!	!LO:TX:b:t=rit.	!
.	.	.	16d-/Jk 16dd-	.
8Gn/L 8e-	4E-\	.	16B-/LL 16b-	.
.	.	.	16c/J 16cc	.
8G/J 8e-	.	.	[8B-/J [8b-	.
=14	=14	=14	=14	=14
8G-X/L 8d-	2E-\	.	8.B-/L] 8.b-]	>
8G-/J 8d-	.	.	.	.
.	.	.	16G-/Jk 16g-	.
8B-/L 8d-	.	.	2G-/) 2g-	.
8B-/J 8d-	.	.	.	.
!LO:TX:a:t=rall.	!	!	!	!
16d-/LL	8B-\L	.	.	.
16e-/J	.	.	.	.
8d-/J	8B-\J	.	.	.
*v	*v	*	*	*
=15||	=15||	=15||	=15||
*k[]	*	*k[]	*
*	*	*^	*
*	*	*	*	*^
!LO:TX:b:t=(marcato)	!	!LO:TX:a:t=a tempo (poco agit.)	!	!LO:DY:b:rj	!
(16EE-X/LL 16E-X	.	(8.f/L	8F\L 8A	pp <	.
16FF/J 16F	.	.	.	.	.
8EE-/J) 8E-	.	.	8F\J 8A	.	.
.	.	16f/Jk	.	.	.
4CC#X/ 4C#X	.	8.f#X^^/L	8F#X\L 8A 8c#X	[	.
.	.	.	8F#\J 8A	>	.
.	.	16c#/Jk	.	.	.
*clefG2	*	*	*	*	*
!	!	!	!	!	!LO:DY:b=2
4f#X/ 4a 4cc#X	.	4c#/)	8F#\L 8A	.	pp
.	.	.	8F#\J 8A	]]	.
*	*	*	*	*v	*v
*clefF4	*	*	*	*
!!LO:LB:g=original
=16	=16	=16	=16	=16
(16EE-X/LL 16E-X	.	(8.fn/L	8Fn\L 8An	.
16FFn/J 16Fn	.	.	.	.
8EE-/J) 8E-	.	.	8F\J 8A	.
.	.	16f/Jk	.	.
4CC#X/ 4C#X	.	8.f#X^^/L	8F#X\L 8A 8c#X	.
.	.	.	8F#\J 8A	.
.	.	16c#/Jk	.	.
*clefG2	*	*	*	*
!	!	!	!	!LO:DY:b=2
4f#X/ 4a 4cc#X	.	4c#/)	8F#\L 8A	pp
.	.	.	8F#\J 8A	.
*clefF4	*	*clefF4	*	*
=17	=17	=17	=17	=17
16AAA/LL 16AA	.	(8.d/L	8F#X\L 8c#X	<
16BBB/J 16BB	.	.	.	.
8AAA/J 8AA	.	.	8F#\J 8c#	.
.	.	16d/Jk	.	.
4FFF#X/ 4FF#X	.	4d#X/	8A\L 8cn	.
.	.	.	8A\J 8c#X	.
4FFFn/ 4FFn	.	8.e-X/L	8A-X\L 8c-X	[
.	.	.	8A-\J 8c-	.
.	.	16e-/Jk	.	.
=18	=18	=18	=18	=18
4EEEn/ 4EEn	.	8.e-X/L	8G\L 8B-X	>
.	.	.	8G\J 8B-	.
.	.	16d-X/Jk	.	.
*clefG2	*	*	*	*
4.en^^/ 4.dd-X	.	2d-/)	8G\L 8B-	.
.	.	.	8G\J 8B-	]
!	!	!LO:TX:b:t=rall.	!	!
.	.	.	8G\L 8B-	.
8r	.	.	8G\J 8B-	.
*clefF4	*	*clefG2	*	*
!!LO:LB:g=original
=19	=19	=19	=19	=19
*^	*	*	*	*
!	!	!	!LO:TX:a:t=(più agit.)	!	!
(16BBB-X/LL 16BB-X	4ryy	.	(8.cc/L	8c\L 8e 8g	p
16CC/J 16C	.	.	.	.	.
8BBB-/J) 8BB-	.	.	.	8c\J 8e 8g	<
.	.	.	16cc/Jk	.	.
*	*Xtuplet	*	*	*	*
8GG#X/	(>24GGG#X\LL	.	8.cc#X^^/L	8c#X\L 8e 8g#X	.
.	24CC#X\	.	.	.	.
.	24EE\J	.	.	.	.
8ryy	24GG#\L	.	.	8c#\J 8e	[
.	24C#X\	.	.	.	.
.	.	.	16g#/Jk	.	>
.	24E\JJ)	.	.	.	.
4ryy	4G#X^^\	.	4g#^^/)	8c#\L 8e	.
.	.	.	.	8c#\J 8e	]
=20	=20	=20	=20	=20	=20
(16BBB-X/LL 16BB-X	4ryy	.	(8.ccn/L	8cn\L 8e 8gn	<
16CCn/J 16Cn	.	.	.	.	.
8BBB-/J) 8BB-	.	.	.	8c\J 8e 8g	.
.	.	.	16cc/Jk	.	.
8GG#X/	(>24GGG#X\LL	.	8.cc#X^^/L	8c#X\L 8e 8g#X	.
.	24CC#X\	.	.	.	.
.	24EE\J	.	.	.	[
8ryy	24GG#\L	.	.	8c#\J 8e	.
.	24C#X\	.	.	.	>
.	.	.	16g#/Jk	.	.
.	24E\JJ)	.	.	.	.
4ryy	4G#X^^\	.	4g#^^/)	8c#\L 8e	.
.	.	.	.	8c#\J 8e	]]
*v	*v	*	*	*	*
*	*	*v	*v	*
!!LO:LB:g=original
=21	=21	=21	=21
*8ba	*	*	*
*	*	*^	*
16EEE/LL 16EE	.	(8.A/L 8.a	8c#X\L 8g#X	.
16FFF#X/J 16FF#X	.	.	.	.
8EEE/J 8EE	.	.	8c#\J 8g#	>
.	.	16A/Jk 16a	.	.
4CCC#X/ 4CC#X	.	4B-X/ 4b-X	8e\L 8gn	.
.	.	.	8e\J 8g	]
!	!	!LO:TX:b:t=(poco rit.)	!	!
4CCCn/ 4CCn	.	8.B-/L 8.b-	8e-X\L 8g-X	.
.	.	.	8e-\J 8g-	.
.	.	16B-/Jk) 16b-	.	.
=22	=22	=22	=22	=22
*^	*	*	*	*
24BBBB/LL 24BBB	4ryy	.	(8.Bn/L 8.bn	8en\L 8gn	.
(24EEE/	.	.	.	.	.
24GGG/J	.	.	.	.	.
!	!	!	!	!	!LO:HP:t=poco a poco cresc e agitato.:ext=s+ext=ud
32BBB/LL	.	.	.	8e\J 8g	<
32EE/	.	.	.	.	.
32GG/	.	.	16B/Jk 16b	.	.
32BB/JJJ)	.	.	.	.	.
*v	*v	*	*	*	*
*	*	*v	*v	*
*X8ba	*	*	*
*^	*	*^	*
!LO:TX:b:t=loco	!	!	!	!	!
!LO:N:vis=8.E/L	!	!	!	!	!
8E/L	8.E\L	.	8.e/L 8.ee	8g\L 8b	.
8G/J 8B	.	.	.	8g\J 8b	.
.	16E\Jk	.	16e/Jk 16ee	.	.
8G/L 8B	16D\LL	.	16d/LL 16dd	8g\L 8b	.
.	16E\J	.	16e/J 16ee	.	.
8G/J 8B	8D\J	.	8d/J 8dd	8g\J 8b	.
=23	=23	=23	=23	=23	=23
24C/LL 24F 24A	4ryy	.	8.c/L 8.cc	8f\L 8a	.
(24BBB/	.	.	.	.	.
24FF/J	.	.	.	.	.
24AA/L	.	.	.	8f\J 8a	.
24C/	.	.	.	.	.
.	.	.	16A/Jk 16a	.	.
24F/JJ)	.	.	.	.	.
!	!LO:N:vis=2A\L	!	!	!	!
2A^^/	8A\L	.	2a^^/)	8c\L 8f	.
.	8C\J 8F	.	.	8c\J 8f	.
.	8C\L 8F	.	.	8c\L 8f	.
.	8C\J 8F	.	.	8c\J 8f	.
*v	*v	*	*	*	*
*	*	*v	*v	*
!!LO:LB:g=original
=24	=24	=24	=24
*8ba	*	*	*
*^	*	*^	*
24BBBB/LL 24BBB	4ryy	.	(8.c/L 8.cc	8f\L 8a	.
24FFF/	.	.	.	.	.
24AAA/J	.	.	.	.	.
32CC/LL	.	.	.	8f\J 8a	.
32FF/	.	.	.	.	.
32AA/	.	.	16c/Jk 16cc	.	.
32C/JJJ	.	.	.	.	.
*v	*v	*	*	*	*
*	*	*v	*v	*
*X8ba	*	*	*
*^	*	*^	*
!LO:TX:b:t=loco	!	!	!	!	!
!LO:N:vis=8.F/L	!	!	!	!	!
8F/L	8.F\L	.	8.f/L 8.ff	8a\L 8cc	.
8A/J 8c	.	.	.	8a\J 8cc	.
.	16F\Jk	.	16f/Jk 16ff	.	.
8A/L 8c	16E\LL	.	16e/LL 16ee	8a\L 8cc	.
.	16F\J	.	16f/J 16ff	.	.
8A/J 8c	8E\J	.	8e/J 8ee	8a\J 8cc	.
*v	*v	*	*	*	*
=25	=25	=25	=25	=25
4GG\ 4BB-X 4E-X^^ 4B-X	.	8.e-X/L 8.ee-X	8g\L 8b-X	.
.	.	.	8g\J 8b-	.
.	.	16B-X/Jk 16b-	.	.
(16GGG/LL 16GG	.	2B-/) 2b-	8e-\L 8g	.
16AAA-X/J 16AA-X	.	.	.	.
8GGG/J) 8GG	.	.	8e-\J 8g	[
(16GG/LL 16G	.	.	8e-\L 8g	.
16AA-/J 16A-X	.	.	.	.
8GG/J) 8G	.	.	8e-\J 8g	.
!!LO:PB:g=original
=26	=26	=26	=26	=26
16DD-X/LL 16D-X	.	(8.gg/L	8g\L 8b-X 8ee-X	.
16EE-X/J 16E-X	.	.	.	.
8DD-/J 8D-	.	.	8e-X\J 8g 8b-	.
.	.	16ee-/Jk	.	.
*tuplet	*	*	*	*
(48BBBn/LLL 48BBn	.	8.een/L	8en\L 8g 8bn	.
48DD#X/	.	.	.	.
!	!	!	!	!LO:HP:b=2
48EEn/	.	.	.	<
48FF#X/	.	.	.	.
48GG/	.	.	.	.
48AA#X/	.	.	.	.
48BBn/	.	.	8e\J 8g	.
48D#X/	.	.	.	.
48En/	.	.	.	.
48F#X/	.	16b/Jk	.	.
48G/	.	.	.	.
48A#X/JJJ)	.	.	.	[
4Btt\	.	4b/)	8e\L 8g	.
.	.	.	8e\J 8g	.
=27	=27	=27	=27	=27
16DD-X/LL 16D-X	.	(8.gg/L	8g\L 8b-X 8ee-X	.
16EE-X/J 16E-X	.	.	.	.
8DD-/J 8D-	.	.	8e-X\J 8g 8b-	.
.	.	16ee-/Jk	.	.
(48BBBn/LLL 48BBn	.	8.een/L	8en\L 8g 8bn	.
!	!	!	!	!LO:HP:b=2
48DD#X/	.	.	.	<
48EEn/	.	.	.	.
48FF#X/	.	.	.	.
48GG/	.	.	.	.
48AA#X/	.	.	.	.
48BBn/	.	.	8e\J 8g	.
48D#X/	.	.	.	.
48En/	.	.	.	.
48F#X/	.	16b/Jk)	.	[
48G/	.	.	.	.
48A#X/JJJ)	.	.	.	.
4Btt\	.	4b/	8e\L 8g	.
.	.	.	8e\J 8g	.
!!LO:LB:g=original
=28	=28	=28	=28	=28
16EE-X/LL 16E-X	.	(8.aa/L	8a\L 8cc 8ff	.
16FFn/J 16Fn	.	.	.	.
8EE-/J 8E-	.	.	8f\J 8a 8cc	.
.	.	16ff/Jk	.	.
(48CC#X/LLL 48C#X	.	8.ff#X/L	8f#X\L 8a# 8cc#X	.
48EE#X/	.	.	.	.
!	!	!	!	!LO:HP:b=2
48FF#X/	.	.	.	<
48GG##X/	.	.	.	.
48AA#X/	.	.	.	.
48BB#X/	.	.	.	.
48C#X/	.	.	8f#\J 8a#	.
48E#X/	.	.	.	.
48F#X/	.	.	.	.
48G##X/	.	16cc#/Jk)	.	.
48A#X/	.	.	.	[
48B#X/JJJ)	.	.	.	.
!LO:N:vis=2c#XTT\	!	!	!	!
4c#XTT\	.	4cc#/	8f#\L 8a#	.
.	.	.	8f#\J 8a#	.
=29	=29	=29	=29	=29
*^	*	*	*	*
4ryy	16EE-X/LL 16E-X	.	(8.aan/L	8an\L 8ccn 8ffn	<
.	16FFn/J 16Fn	.	.	.	.
.	8EE-/J 8E-	.	.	8fn\J 8a 8cc	.
.	.	.	16ff/Jk	.	.
*	*Xtuplet	*	*	*	*
8CC#\	44C#X/LLL	.	8f#X\L 8a# 8cc#X 8ff#X	2ryy	.
.	44BB#X/	.	.	.	.
.	44AA#X/	.	.	.	.
.	44GG#X/	.	.	.	.
.	44FF#X/	.	.	.	.
*	*8ba	*	*	*	*
.	44EE#X/	.	.	.	.
!	!	!	!LO:TX:b:t=rall.	!	!
8ryy	.	.	8a#\J 8cc# 8ff# 8aa#X	.	[
.	44DD#X/	.	.	.	.
.	44CC#X/	.	.	.	.
.	44BBB#X/	.	.	.	.
.	44AAA#X/	.	.	.	.
.	44GGG#X/JJJ	.	.	.	.
4ryy	4FFF#tt>/	.	8b\L 8ee 8aa#X 8bb	.	.
.	.	.	8b#X\J) 8ee 8aa# 8bb#X	.	.
*	*X8ba	*	*	*	*
*v	*v	*	*	*	*
*	*	*v	*v	*
!!LO:LB:g=original
=30||	=30||	=30||	=30||
*k[b-e-a-d-g-]	*	*k[b-e-a-d-g-]	*
*	*	*8va	*
*	*	*^	*
!LO:TX:t=P:problem=mixed beam	!	!LO:TX:a:t=Tempo I.	!	!
8FFF/L 8FF	.	(8.dd-/L 8.ddd-	8ff\L 8bb-	fff
8B-\J 8d- 8f 8b-	.	.	8ff\J 8bb-	.
.	.	16dd-/Jk 16ddd-	.	.
(8qEE-/ 8qE-	.	.	.	.
*clefG2	*	*	*	*
!	!	!LO:TX:b:t=(passionato)	!	!
8B--/L) 8d- 8e- 8g- 8b--	.	8.gg-/L 8.ggg-	8bb--\L 8ddd-	.
8B--/J 8d- 8e- 8g- 8b--	.	.	8bb--\J 8ddd-	.
.	.	16gg-/Jk 16ggg-	.	.
*clefF4	*	*	*	*
(8qAAA-/ 8qAA-	.	.	.	.
8G-\L 8A- 8c 8a-	.	16ee-/LL 16eee-	8aa-\L	<
.	.	16ff/J 16fff	.	.
8G-\J 8A- 8c 8a-	.	8ee-/J 8eee-	8aa-\J	.
=31	=31	=31	=31	=31
8FFF/L 8FF	.	8.ff/L 8.fff	8bb-\L 8ccc	.
8CC/J 8C	.	.	8aa-\J 8ccc	[
.	.	16cc/Jk 16ccc	.	.
*tuplet	*	*	*	*
!LO:TUP:a	!	!	!	!
(36FF\LLL 36F	.	2cc/) 2ccc	8ff\L 8aa-	.
36C\	.	.	.	.
36En\	.	.	.	.
36F\	.	.	.	.
36Gn\	.	.	.	.
.	.	.	8ff\J 8aa-	.
36A-\	.	.	.	.
36Bn\	.	.	.	.
36c\	.	.	.	.
36en\JJJ)	.	.	.	.
4fTT\	.	.	8ff\L 8aa-	.
.	.	.	8ff\J 8aa-	.
=32	=32	=32	=32	=32
*^	*	*	*	*
.	8qFF/	.	.	.	.
8c/L 8f	4F\	.	(8.a-/L 8.aa-	8cc\L 8ff	.
8c/J 8f	.	.	.	8cc\J 8ff	<
.	.	.	16a-/Jk 16aa-	.	.
.	8qDD-/	.	.	.	.
8A-/L 8B- 8f-X	4D-\	.	8.dd-/L 8.ddd-	8ff-X\L 8aa-	.
8A-/J 8B- 8f-	.	.	.	8ff-\J 8aa-	[
.	.	.	16dd-/Jk 16ddd-	.	.
8qEE-/ 8qE-	.	.	.	.	.
8G-\L 8B- 8e- 8g-	4ryy	.	16b-/LL 16bb-	8ee-\L 8gg-	.
.	.	.	16cc/J 16ccc	.	.
8G-\J 8B- 8e- 8g-	.	.	8b-/J 8bb-	8ee-\J 8gg-	.
*v	*v	*	*	*	*
!!LO:LB:g=original
=33	=33	=33	=33	=33
8AAA-/L 8AA-	.	8.cc/L 8.ccc	8ee-\L 8aa-	.
8E-/J 8A- 8c 8e-	.	.	8cc\J 8ee-	.
.	.	16a-/Jk 16aa-	.	.
36GGG-/LLL 36GG-	.	2b-/) 2bb-	8ee-\L	.
36AAn/	.	.	.	.
36BB-/	.	.	.	.
36Dn/	.	.	.	.
36E-/	.	.	.	.
.	.	.	8cc\J 8ee-	.
36F/	.	.	.	.
36G-/	.	.	.	.
36An/	.	.	.	.
36B-/JJJ	.	.	.	.
16c^^\LL	.	.	8cc\L 8ee-	.
16d-^^\J	.	.	.	.
8c^^\J	.	.	8cc\J 8ee-	.
=34	=34	=34	=34	=34
*M1/4	*	*M1/4	*M1/4	*
8FF:\L 8C: 8F: 8An:	.	8.cc/L [8.ccc	8ff\L 8aan	<
8C\J 8F 8A 8c	.	.	8ff\J 8aa	.
.	.	16cc/Jk 16ccc]	.	.
*	*	*v	*v	*
=35||	=35||	=35||	=35||
*M3/4	*	*M3/4	*
*	*	*^	*
8BB-:\L 8F: 8B-: 8d-:	.	(8.dd-/L 8.ddd-	8bb-\L	.
8A-\J 8B- 8d- 8a-	.	.	8aa-\J	.
.	.	16dd-/Jk 16ddd-	.	[
8G-\L 8B- 8e- 8g-	.	8.bb-/L 8.bbb-	8ddd-\L	sff
8EE-\J 8E-	.	.	8ddd-\J	.
.	.	16bb-/Jk 16bbb-	.	.
8qAAA-/ 8qAA-	.	.	.	.
8E-\L 8A- 8c 8g-	.	16aa-/LL 16aaa-	8eee-\L	.
.	.	16bb-/J 16bbb-	.	.
8G-\J 8A- 8c 8a-	.	8aa-/J 8aaa-	8eee-\J	.
!!LO:LB:g=original
=36	=36	=36	=36	=36
8qBBB-/ 8qBB-	.	.	.	.
8D-\L 8G- 8B- 8d-	.	8.gg-/L 8.bb- 8.ddd- 8.ggg-	4ryy	<
8G-\J 8B- 8d- 8g-	.	.	.	.
.	.	16dd-/Jk 16ddd-	.	.
8qCC/ 8qC	.	.	.	.
16A-\LL 16e- 16a-	.	4ee-/ 4eee-	8gg-\L 8aa-	.
16B-\J 16b-	.	.	.	.
8A-\J 8e- 8a-	.	.	8ee-\J 8gg- 8aa-	[
8qDD-/ 8qD-	.	.	.	.
8G-\L 8B- 8d- 8g-	.	8.dd-/L 8.gg- 8.bb- 8.ddd-	8ryy	.
8G-\J 8B- 8d- 8g-	.	.	8ryy	.
.	.	[16a-/Jk) [16aa-	.	.
*	*	*v	*v	*
=37	=37	=37	=37
!LO:TX:b:t=marc.	!	!	!
(8.AA-/L 8.A-	.	8a-/L] 8cc 8gg- 8aa-]	p
!	!	!	!LO:HP:t=molto cresc. e precipitando:ext=s
.	.	8a-/J 8cc 8gg- 8aa-	<
16DDn/Jk) 16Dn	.	.	.
*	*	*X8va	*
(16DD/LL 16D	.	(8A-/L 8c 8g- 8a-	.
16EE-/J 16E-	.	.	.
8DD/J) 8D	.	8a-/J) 8cc 8gg- 8aa-	.
8.EE-/L 8.E-	.	(8An/L 8c#X 8gn 8an	.
.	.	8a/J) 8cc#X 8ggn 8aan	.
16EEn/Jk 16En	.	.	.
=38	=38	=38	=38
16EEn/LL 16En	.	(8B-/L 8dn 8a-X 8b-	.
16FF/J 16F	.	.	.
8EE/J 8E	.	8b-/J) 8ddn 8aa- 8bb-	.
8.FF/L 8.F	.	(8Bn/L 8d#X 8an 8bn	.
.	.	8b/J) 8dd#X 8aan 8bbn	.
16GG-/Jk 16G-	.	.	.
4GG-/ 4G-	.	(8c/L 8e- 8a 8cc	.
.	.	8cc/J) 8ee- 8aa 8ccc	.
!!LO:PB:g=original
=39	=39	=39	=39
*	*	*^	*
*Xtuplet	*	*	*	*
(42GGG-/LLL	.	8c/L 8cc	8en\L 8b-	fff
42AAAn/	.	.	.	.
42BBB-/	.	.	.	.
42CC/	.	.	.	.
!	!	!	!	!LO:HP:b=2
42DD-/	.	.	.	<
42EEn/	.	.	.	.
*	*	*v	*v	*
*	*	*8va	*
*	*	*^	*
.	.	[<8cc/J [>8ccc	8een\J 8bb-	.
42FF/	.	.	.	.
42GG-/	.	.	.	.
42AAn/	.	.	.	.
!LO:TX:a:t=molto rall.	!	!	!	!
42BB-/	.	.	.	.
42C/	.	.	.	.
.	.	8cc/L] 8ccc]	8ee\L 8bb-	.
42D-/	.	.	.	.
42En/	.	.	.	.
42F/	.	.	.	.
42G-/	.	.	.	.
42An/	.	.	.	[
.	.	8bn/J 8bbn	8ee\J 8bb-y	.
42B-/	.	.	.	.
42c/	.	.	.	.
42d-/	.	.	.	.
42en/	.	.	.	.
42f/JJJ)	.	.	.	.
4g-TT\	.	8cc/L 8ccc	8ee\L 8bb-	.
.	.	8dd-/J 8ddd-	8ee\J 8bb-	.
=40	=40	=40	=40	=40
*^	*	*	*	*
16f^^\	4ryy	.	16ff^^\ 16bb- 16ddd- 16fff	8ryy	sfff
*	*	*	*X8va	*	*
16r	.	.	16r	.	.
!	!	!	!LO:TX:a:t=mesto	!	!LO:DY:t=sub. ppp
[8FFF/ [8FF	.	.	(8e-/	8B-\ 8c-X	ppp <
4FFF/_ 4FF_	4ryy	.	4.e-^^/	8B-\L 8c-	.
.	.	.	.	8B-\J 8c-	[
8.FF/L]	8FFF\]	.	.	8B-\L 8c-	>
.	8r	.	8f/)	8An\J 8c-	.
32FF/LL	.	3	.	.	]
32FF/JJJ	.	2	.	.	.
=41	=41	=41	=41	=41	=41
[2FF/	[2FFF\	.	8r	8ryy	.
.	.	.	(8f/	8c-X\ 8e-	<
.	.	.	4.f^^/	8c-\L 8e-	.
.	.	.	.	8c-\J 8e-	[
8.FF/L]	8FFF\]	.	.	8c-\L 8e-	>
.	8r	.	8g-/)	8B-\J 8d-	.
32FF/LL	.	.	.	.	]
32FF/JJJ	.	.	.	.	.
*	*	*	*v	*v	*
!!LO:LB:g=original
=42	=42	=42	=42	=42
[2.FF/	[2.FFF\	.	8r	.
.	.	.	(8d-/L 8f 8g-	<
.	.	.	8c/J) 8e- 8gn	.
.	.	.	(8e-/L 8g-X 8a-	.
.	.	.	8dn/J) 8f 8an	.
.	.	.	(8f/L 8a-X 8b-	[
=43	=43	=43	=43	=43
*	*^	*	*^	*
*	*	*	*	*	*^	*
2.FF/]	8FFF\]	8r	.	8en/J) 8gn 8bn	4ryy	4ryy	.
.	8rAAA	[8F/	.	(>8g-X^^/ 8b-X [8cc	.	.	.
!	!	!	!	!LO:TX:b:t=rall.	!	!	!
.	2rAAA	2F/]	.	4cc/_	4f\	2an\	.
.	.	.	.	8.cc/L]	4e\	.	.
.	.	.	.	16dd-/Jk)	.	.	.
*	*v	*v	*	*	*	*	*
*	*	*	*	*v	*v	*
=44	=44	=44	=44	=44	=44
!	!	!	!LO:TX:a:t=Tempo I.	!	!
8BB-\L 8F 8B-	4ryy	.	(8.d-/L 8.dd-	8b-\L	pp
!	!	!	!	!LO:TX:b:t=semplice	!
8B-\J 8f	.	.	.	8b-\J	.
.	.	.	16d-/Jk 16dd-	.	.
*clefG2	*	*	*	*	*
8d-/L 8e- 8b--	4G-\	.	8.g-/L 8.gg-	2ryy	<
8d-/J 8e- 8b--	.	.	.	.	.
.	.	.	16g-/Jk 16gg-	.	.
8c/L 8a-	4A-\	.	16e-/LL 16ee-	.	[
.	.	.	16f/J 16ff	.	.
8c/J 8a-	.	.	8e-/J 8ee-	.	.
*	*	*	*v	*v	*
*clefF4	*	*	*	*
=45	=45	=45	=45	=45
8c/ 8a-	2.F\	.	8.f/L 8.ff	>
4c/ 4a-	.	.	.	.
.	.	.	16c/Jk 16cc	.
.	.	.	2c/) 2cc	.
!LO:TX:a:t=m.d.	!	!	!	!
8A-/L 8f	.	.	.	]
8A-/ 8f	.	.	.	.
8B-/J 8gn	.	.	.	.
!!LO:LB:g=original
=46	=46	=46	=46	=46
8c/L 8f	4F\	.	(>8.A-/L 8.a-	.
8c/J 8f	.	.	.	<
.	.	.	16A-/Jk 16a-	.
8A-/L 8B- 8f-X	4D-\	.	8.d-/L 8.dd-	.
8A-/J 8B- 8f-	.	.	.	.
.	.	.	16d-/Jk 16dd-	.
8G-/L 8e-	4E-\	.	16B-/LL 16b-	[
.	.	.	16c/J 16cc	.
8G-/J 8e-	.	.	8B-/J 8b-	.
=47	=47	=47	=47	=47
8E-:/L 8A-: 8e-:	8AA-:\	.	8.c/L 8.cc	.
8E-/J 8A- 8e-	8r	.	.	<
.	.	.	16A-/Jk 16a-	.
!LO:TX:b:t=poco a poco rall. e dim.	!	!	!LO:TX:a:t=ten.	!
8E-:/L 8G-: 8c:	8GG-:\	.	2B-^^/) 2b-	.
!LO:TX:a:t=m.d.	!	!	!	!
8E-/J 8G- 8c	8r	.	.	[
!LO:TX:a:t=rit.	!	!	!	!
16c/LL	8E-\L 8G-	.	.	.
16d-/J	.	.	.	.
8c/J	8E-\J 8G-	.	.	.
=48	=48	=48	=48	=48
*	*	*	*	*^
!	!	!	!LO:TX:b:t=più	!	!
8E-:/L 8A-: 8e-:	8AA-:\	.	(>8.c/L 8.cc	.	.
8E-/J 8A- 8e-	8r	.	.	.	.
!	!	!	!	!LO:DY:b:rj	!
.	.	.	16A-/Jk 16a-	pp	.
!	!	!	!LO:TX:a:t=ten.	!	!LO:HP:t=dim._:ext=ud
8En:/L 8G-: 8c:	8GG-:\	.	2B-/) 2b-	.	>
!LO:TX:a:t=m.d.	!	!	!	!	!
!LO:TX:a:t=rall.	!	!	!	!	!
8E/J 8G- 8c	8r	.	.	.	.
16c/LL	8E\L 8G-	.	.	.	.
16d-/J	.	.	.	.	.
8c/J	8E\J 8G-	.	.	.	.
*v	*v	*	*	*	*
=49	=49	=49	=49	=49
*	*	*^	*	*
*	*	*	*	*	*^
!	!	!LO:TX:a:t=a tempo	!	!LO:DY:b	!	!
(16BBB-/LL 16BB-	.	(8.cc/L	8c\L 8en 8gn	pp	.	.
16CC/J 16C	.	.	.	<	.	.
8BBB-/J) 8BB-	.	.	8c\J 8e 8g	.	.	.
.	.	16cc/Jk	.	.	.	.
4AAA-/ 4AA-	.	8.dd-/L	8d-\L 8f-X 8a-	[	.	.
.	.	.	8d-\J 8f-	.	.	.
.	.	16a-/Jk	.	.	.	>
*clefG2	*	*	*	*	*	*
!	!	!	!	!LO:DY:b=2	!	!
4ff-X\ 4ddd-	.	4a-/)	8d-\L 8f-	pp	.	.
.	.	.	8d-\J 8f-	.	.	]]
*	*	*	*	*	*v	*v
*clefF4	*	*	*	*	*
!!LO:LB:g=original
=50	=50	=50	=50	=50	=50
16BBB-/LL 16BB-	.	(8.cc/L	8c\L 8en 8gn	<	.
16CC/J 16C	.	.	.	.	.
8BBB-/J 8BB-	.	.	8c\J 8e 8g	.	.
.	.	16cc/Jk	.	.	.
4AAA-/ 4AA-	.	8.dd-/L	8d-\L 8f-X 8a-	[	.
.	.	.	8d-\J 8f-	>	.
.	.	16a-/Jk	.	.	.
*clefG2	*	*	*	*	*
4ff-X\ 4ddd-	.	4a-/)	8d-\L 8f-	.	.
.	.	.	8d-\J 8f-	]	.
*clefF4	*	*	*	*	*
=51	=51	=51	=51	=51	=51
16GGGn/LL 16GGn	.	(8.an/L	8An\L 8c#X 8en	<	]
16AAAn/J 16AAn	.	.	.	.	.
8GGG/J 8GG	.	.	8A\J 8c# 8e	.	.
.	.	16a/Jk	.	.	.
4FFF/ 4FF	.	8.b-/L	8B-\L 8d- 8f	[	.
.	.	.	8B-\J 8d-	>	.
.	.	16f/Jk	.	.	.
!	!	!	!	!	!LO:DY:b=2
4BB-/ 4D- 4F	.	4f/)	8B-\L 8d-	.	pp
.	.	.	8B-\J 8d-	]	.
*	*	*	*	*v	*v
*	*	*v	*v	*
=52	=52	=52	=52
*M4/4	*	*M4/4	*
*met(c)	*	*met(c)	*
*^	*	*^	*
16GGGn/LL 16GGn	4ryy	.	(8.an/L	8An\L 8c#X 8en	.
16AAAn/J 16AAn	.	.	.	.	.
8GGG/J 8GG	.	.	.	8A\J 8c# 8e	.
.	.	.	16a/Jk	.	.
.	8qFFF/	.	.	.	.
!LO:TX:a:t=cantando	!	!	!	!	!
(<8.D-/L	2.FF\	.	8.b-/L	8B-\L 8d- 8f	.
.	.	.	.	8B-\J 8d-	.
16D-/Jk	.	.	16f/Jk	.	.
8.A-/L	.	.	(4f/	8B-\L 8d-	.
.	.	.	.	8B-\J 8d-	.
16A-/Jk	.	.	.	.	.
16G-/LL	.	.	4e-X/))	8B-\L 8cn	.
16A-/J	.	.	.	.	.
8G-/J)	.	.	.	8B-\J 8c	.
*v	*v	*	*	*	*
*	*	*v	*v	*
!!LO:LB:g=original
=53	=53	=53	=53
*M3/4	*	*M3/4	*
*^	*	*^	*
(<8.D-/L	2.FF\	.	(8.b-/L	8B-\L 8d- 8f	>
.	.	.	.	8B-\J 8d-	.
16D-/Jk	.	.	16f/Jk	.	]
8.A-/L	.	.	(4f/	8B-\L 8d-	.
.	.	.	.	8B-\J 8d-	.
16A-/Jk	.	.	.	.	.
16G-/LL	.	.	4e-/))	8B-\L 8c	.
16A-/J	.	.	.	.	.
8G-/J)	.	.	.	8B-\J 8c	.
*	*	*	*clefF4	*	*
=54	=54	=54	=54	=54	=54
!	!	!	!LO:TX:a:t=(adagio)	!	!
8.D-/L	4r	.	4r	4ryy	.
16D-/Jk	.	.	.	.	.
!	!	!	!LO:TX:a:t=ten.	!	!
!	!	!	!LO:TX:b:t=rall.	!	!
(4D->\	2FFF\ 2FF	.	4G-/ 4B-	2e-^^>\	.
4C>\)	.	.	4F/ 4An	.	.
*v	*v	*	*	*	*
*	*	*v	*v	*
=55	=55	=55	=55
2.BBB-/ 2.FF 2.BB-	.	2.Dn\ 2.F 2.B- 2.dn	ppp
=56	=56	=56	=56
2.BBB-/ 2.FF 2.BB-	.	2.Dn\ 2.F 2.B- 2.dn	.
=57	=57	=57	=57
2.BBBB-;/ 2.BBB-	.	2.r;	.
==	==	==	==
*-	*-	*-	*-
!!!system-decoration: {(s1,s2)}
!!!RDF**kern: < = below
!!!RDF**kern: > = above
!!!RDF**dynam: > = "dim."
!!!ENC: Anastazja Marusiak
!!!END: 2023-09-20
!!!EED: Marta Chmielewska
!!!EEV: 2023-10-06
